X: 1
T:Auld Lang Syne
C:R. Burns
N:the original tune
O:Scotland
M:4/4
K:G
d2|\
g>g ab d>e dc| g>b ag e2 g<e| d>B AG A>G AB| d2 e>d d3 ||
d|\
g2 ab d>e dB| g>b ag e2 ge| dB AG A>G Ac| d2 e>d d3|]
